X:1
T:Wenham
T:Nahum Tate and Nicholas Brady 1696-1698 New Version , Psalm 64              86. 86. (C. M.) 
T:Transcribed from Harmonia Americana, 1791.
T:A minor                       Samuel Holyoke, 1791 
%%score [ 1 2 3 4 ]
L:1/8
Q:1/4=140
M:3/2
K:C
V:1 treble nm="Tr." snm="Tr."
V:2 treble nm="C." snm="C."
V:3 treble-8 nm="T." snm="T."
V:4 bass nm="B." snm="B."
V:1
"^1. Lord, hear  the   voice     of   my  complaint,  To   my         re – quest      give  ear;  Preserve my life  from  cru – el      foes, And  free   my   soul   from  care.\n2.  O      hide  me   with      thy  tenderest care  In   some      se – cure        re –treat, From sinners that a–gainst   me    rise,  And   all   their  plots  de  – feat.\n" A4 | %1
 (e6 d2) c4 | B8 A4 | (d6 c2) B4 | A8 A4 | G8 B4 | (c3 d e4) B4 | B8 c4 | A8 c4 | B8 A4 | %10
 ^G8 (3(A2 B2 c2) | B8 B4 | (c6 d2) e4 | (d4 c4) B4 | A12 |] %15
V:2
"^3. With  ut – most   di   –   li – gence and care Their wick – ed     plots      they  lay;  The deep designs of    all   their     hearts  Are on –  ly    to       be  – tray.\n4.  But  God,    to     an  –  ger  just – ly  moved, His  dread–ful     bow   shall  bend,  And  on   his  flying     ar –  row's   point  Shall swift  de–struc–tion send.\n" E4 | %1
 E8 E4 | (E6 D2) C4 | F8 E4 | E8 E4 | (E4 D4) G4 | (E4 A4) ^F4 | ^G8 A4 | D8 G4 | G8 E4 | E8 E4 | %11
 E8 E4 | E8 C4 | F8 E4 | E12 |] %15
V:3
"^5. The  world shall then  God's power confess, And na  –  tions  trem  – bling  stand, Convinced that 'tis the  migh–ty    work  Of   his     a – ven – ging hand.\n6. While righteous men, whom  God  secures,   In   him     shall  glad   –     ly   trust;  And all  the listening earth  shall   hear  Loud triumphs  of      the  just.\n" e4 | %1
 (c6 B2) A4 | ^G8 E4 | A8 ^G4 | A8 c4 | B8 d4 | c8 d4 | e8 e4 | f8 e4 | d8 c4 | B8 A4 | ^G8 G4 | %12
 (A6 B2) c4 | (B4 A4) ^G4 | A12 |] %15
V:4
 A,4 | A,8 A,,4 | E,8 C,4 | D,8 E,4 | A,,8 A,4 | (E,3 F, G,4) G,4 | A,8 B,4 | E,8 A,4 | D8 C4 | %9
 G,8 A,4 | E,8 A,,4 | E,8 E,4 | C,8 A,,4 | D,8 E,4 | A,,12 |] %15

